X: 1
T: Fireman's Reel
O: trad
Z: :n
R: reel
M: C|
L: 1/8
Z: Contributed 20040727011643 by John Chambers jc:trillian.mit.edu
K: A
|:"A"AcBc AFEF | Acea "D"f2fg | "A"agfe fecA | "B(m)"BcBA "E7"F2E2 |
| "A"AcBc AFEF | Acea "D"f2"E7"(3efg | "A"agfe fecA | "E7"B2A2 "A"A4 :|
|:"A"eaga fece | eaga "D"f2fg | "A"agfe "F#m"fecA | "B(m)"BcBA "E7"F2E2 |
| "A"AcBc AFEF | Acea "D"f2"E7"(3efg | "A"agfe "F#m"fecA | "E7"B2A2 "A"A4 :|
